storage/app/icons/phosphoricons/light/archive-light.svg

<svg xmlns="http://www.w3.org/2000/svg" fill="currentColor" viewBox="0 0 256 256"><path d="M224 50H32a14 14 0 0 0-14 14v24a14 14 0 0 0 14 14h2v90a14 14 0 0 0 14 14h160a14 14 0 0 0 14-14v-90h2a14 14 0 0 0 14-14V64a14 14 0 0 0-14-14m-14 142a2 2 0 0 1-2 2H48a2 2 0 0 1-2-2v-90h164Zm16-104a2 2 0 0 1-2 2H32a2 2 0 0 1-2-2V64a2 2 0 0 1 2-2h192a2 2 0 0 1 2 2ZM98 136a6 6 0 0 1 6-6h48a6 6 0 0 1 0 12h-48a6 6 0 0 1-6-6"/></svg>

<svg xmlns="http://www.w3.org/2000/svg" viewBox="0 0 256 256" fill="currentColor"><path d="M224,50H32A14,14,0,0,0,18,64V88a14,14,0,0,0,14,14h2v90a14,14,0,0,0,14,14H208a14,14,0,0,0,14-14V102h2a14,14,0,0,0,14-14V64A14,14,0,0,0,224,50ZM210,192a2,2,0,0,1-2,2H48a2,2,0,0,1-2-2V102H210ZM226,88a2,2,0,0,1-2,2H32a2,2,0,0,1-2-2V64a2,2,0,0,1,2-2H224a2,2,0,0,1,2,2ZM98,136a6,6,0,0,1,6-6h48a6,6,0,0,1,0,12H104A6,6,0,0,1,98,136Z"/></svg>
